X: 779
P: Longways for as many as will
M: C|
L: 1/8
K: Gm
f>=e f>g f2 (_ed) | (ed) (cB) c2 (Bc) |\
(dB) (cA) (BG) (AG) | (^FD) (^FA) d2 :|
de |\
f3g (gf) (ed) | (ed) (cB) c2 A2 |\
(BA) (Bc) d2 (cB) | AG ^F>G A2 (A/B/c) |\
(BA) (BG) c2 (de) | (fd) (g=e) ^f3 ^f |\
(g<d) (e<c) (d<B) (c<A) | (B<G) (D<^F) G2 |]

